X: 1
T: Marchioness of Huntly's Favorite
C: Wm. Marshall
R: air, strathspey
N: "Slow and pathetic"
B: Marshall p.27, Hardie p.92
M: C
L: 1/8
K: Cm
G \
| ({=B}c>d) (cd/e/) GG (G>E) | (F>E) DC {=A,}B,3 G \
|     (c>d) (cd/e/) GG (G>E) | (F>E) G=B, (C2 CG) |
|     (c>d) (ce) GG (~G>E) | (F>E) DC ~B,3 D \
| (CE) (DF) (EG) (Fe) | (g>f) (ed) {=B}c3 |]
[| G \
| (c>d) ({d}e>f) (e/d/)c/B/ {A}G2 | (TB/=A/B/c/) (B/c/)d/c/ B3 d \
| (c>d) ({d}e>f) (g/f/)e/f/ (gE) | (a/g/)f/e/ (d/f/)e/d/ {=B}c3 G |
| (c>d) ({d}e>f) (e/d/)c/B/ {A}G2 | (TB/=A/B/c/) (B/c/)d/c/ B3 d \
| (e/g/)f/e/ (d/f/)e/d/ (c/=B/)c/d/ (eE) | (DA G)=B, C3 |]
